X: 11214
T: Duntroon
R: reel
M: 4/4
K: Amixolydian
|:e2ce f2df|fece ~A3c|1 e2ce f2ce|BdGd BdGd:|2 defd cdec|BcdB ~G3B||
~e3c ABcd|efec ~A3c|~e3c ABcA|BcdB ~G3B|
~e3c ABcd|eaec ~A3c|defd cdec|BcdB ~G3B||
~A2cA BAcA|~A2cA BAcB|~A2cA BAcA|d~G3 dGBG|
~A2cA BAcB|~A2ef ecAc|defd cdec|BcdB ~G3B||
|:Aa^ga eAcA|ea^ga eAcA|1 ea^ga eAcA|dgBg dgBg:|2 defd cdec|BcdB ~G3B||

